wasmegg/rockets-tracker/src/badges/badge-23.svg

<svg xmlns="http://www.w3.org/2000/svg" xml:space="preserve" style="fill-rule:evenodd;clip-rule:evenodd;stroke-linejoin:round;stroke-miterlimit:2" viewBox="0 0 64 64"><path d="M.291-.037a.5.5 0 0 0-.176.001l-.019.001q.033-.067.073-.13A.8.8 0 0 0 .244-.33q.025-.075.04-.153A.5.5 0 0 0 .288-.64C.281-.689.256-.74.209-.762A.13.13 0 0 0 .128-.77a.12.12 0 0 0-.094.093l-.008.052c-.002.013.003.026.017.03.011.003.028-.004.03-.017q.003-.033.012-.065l.002-.005.002-.004.004-.006.002-.004.011-.011.004-.002.009-.005.008-.004.004-.002.017-.004h.019l.005.001.008.002.006.002.012.007.003.002.013.013.002.003.009.014.003.007.001.001.001.003.009.033.002.008.001.006.001.016-.002.075-.001.014-.001.007-.002.01-.014.067-.025.085-.015.042-.007.019-.002.005-.001.003-.005.01-.041.077-.047.081-.042.085a.03.03 0 0 0-.002.019.02.02 0 0 0 .017.017C.09.017.128.011.166.008L.224.006l.028.002.015.001.008.001h.003q.01.002.019-.003a.03.03 0 0 0 .011-.014C.311-.019.304-.035.291-.037" style="fill:#fff;fill-rule:nonzero" transform="matrix(56 0 0 56 13.056 53.28)"/><path d="M.316-.691.312-.727a.04.04 0 0 0-.031-.029.1.1 0 0 0-.036-.001l-.03.002H.167Q.115-.756.062-.751c-.013.002-.024.01-.024.025 0 .012.011.026.024.024Q.11-.707.158-.706q.04.002.081-.001l.027-.001v.002l.001.007.001.015v.036l-.001.019-.001.009-.001.001-.001.006-.008.039-.006.018-.004.009v.002l-.002.004-.019.035-.011.016-.003.004-.007.009-.014.014-.01.01-.032.019-.004.001-.009.004-.019.005-.011.003L.1-.42H.076a.024.024 0 0 0-.023.018c-.004.012.004.028.017.03q.026.005.051.007l.006.001h.002l.01.002.024.005.01.003.003.001h.001l.015.009.01.01.006.007.002.002.002.003.01.015.004.008.002.004.001.004a.2.2 0 0 1 .016.069v.04l-.003.037-.001.007-.001.009-.004.019-.005.017-.003.007-.001.004L.22-.07l-.002.002-.004.005-.008.008-.002.002-.006.003-.006.003-.001.001-.014.004L.17-.04H.165l-.014.001H.119L.111-.04H.107L.089-.044.084-.046.08-.049.078-.05v-.001L.077-.052.076-.054.074-.06v-.006l.001-.005.002-.003.001-.001.003-.002C.093-.082.096-.099.09-.11.083-.122.068-.125.056-.119a.06.06 0 0 0-.027.032.1.1 0 0 0-.002.039c.004.028.028.045.053.052a.24.24 0 0 0 .139-.009.1.1 0 0 0 .046-.044.37.37 0 0 0 .018-.238.2.2 0 0 0-.069-.101L.188-.4a.2.2 0 0 0 .037-.028.32.32 0 0 0 .092-.231z" style="fill:#fff;fill-rule:nonzero" transform="matrix(56 0 0 56 31.76 53.28)"/></svg>

<?xml version="1.0" encoding="UTF-8" standalone="no"?>
<!DOCTYPE svg PUBLIC "-//W3C//DTD SVG 1.1//EN" "http://www.w3.org/Graphics/SVG/1.1/DTD/svg11.dtd">
<svg width="100%" height="100%" viewBox="0 0 64 64" version="1.1" xmlns="http://www.w3.org/2000/svg" xmlns:xlink="http://www.w3.org/1999/xlink" xml:space="preserve" xmlns:serif="http://www.serif.com/" style="fill-rule:evenodd;clip-rule:evenodd;stroke-linejoin:round;stroke-miterlimit:2;">
    <g transform="matrix(1,0,0,1,-17.7503,22.2681)">
        <g transform="matrix(56,0,0,56,30.8061,31.0123)">
            <path d="M0.291,-0.037C0.251,-0.043 0.211,-0.045 0.171,-0.042C0.153,-0.04 0.134,-0.038 0.115,-0.036C0.109,-0.036 0.103,-0.035 0.096,-0.035C0.118,-0.08 0.142,-0.123 0.169,-0.165C0.201,-0.216 0.225,-0.273 0.244,-0.33C0.26,-0.38 0.275,-0.431 0.284,-0.483C0.293,-0.535 0.296,-0.587 0.288,-0.64C0.281,-0.689 0.256,-0.74 0.209,-0.762C0.183,-0.774 0.155,-0.776 0.128,-0.77C0.102,-0.764 0.075,-0.749 0.059,-0.728C0.047,-0.713 0.039,-0.696 0.034,-0.677C0.03,-0.66 0.028,-0.642 0.026,-0.625C0.024,-0.612 0.029,-0.599 0.043,-0.595C0.054,-0.592 0.071,-0.599 0.073,-0.612C0.076,-0.634 0.078,-0.656 0.085,-0.677C0.086,-0.678 0.087,-0.681 0.087,-0.682C0.088,-0.683 0.089,-0.685 0.089,-0.686C0.09,-0.688 0.092,-0.69 0.093,-0.692C0.094,-0.694 0.094,-0.695 0.095,-0.696L0.106,-0.707C0.107,-0.707 0.108,-0.708 0.11,-0.709C0.113,-0.711 0.116,-0.713 0.119,-0.714C0.121,-0.716 0.124,-0.717 0.127,-0.718C0.128,-0.719 0.13,-0.719 0.131,-0.72C0.137,-0.722 0.142,-0.723 0.148,-0.724L0.152,-0.724C0.155,-0.725 0.158,-0.725 0.16,-0.724L0.167,-0.724C0.169,-0.724 0.171,-0.723 0.172,-0.723C0.175,-0.723 0.178,-0.722 0.18,-0.721C0.181,-0.721 0.185,-0.719 0.186,-0.719C0.19,-0.717 0.194,-0.714 0.198,-0.712C0.199,-0.711 0.2,-0.711 0.201,-0.71L0.214,-0.697C0.215,-0.696 0.216,-0.695 0.216,-0.694C0.22,-0.689 0.222,-0.685 0.225,-0.68C0.226,-0.678 0.227,-0.675 0.228,-0.673C0.229,-0.673 0.229,-0.672 0.229,-0.672C0.229,-0.671 0.23,-0.67 0.23,-0.669C0.234,-0.658 0.237,-0.647 0.239,-0.636C0.24,-0.633 0.24,-0.631 0.241,-0.628C0.241,-0.627 0.242,-0.623 0.242,-0.622C0.242,-0.616 0.243,-0.611 0.243,-0.606C0.244,-0.593 0.244,-0.581 0.244,-0.568C0.244,-0.556 0.243,-0.544 0.241,-0.531C0.241,-0.526 0.24,-0.522 0.24,-0.517C0.24,-0.515 0.239,-0.511 0.239,-0.51C0.238,-0.507 0.238,-0.504 0.237,-0.5C0.233,-0.478 0.228,-0.456 0.223,-0.433C0.215,-0.405 0.207,-0.376 0.198,-0.348C0.194,-0.334 0.189,-0.32 0.183,-0.306C0.181,-0.3 0.178,-0.293 0.176,-0.287C0.175,-0.285 0.174,-0.283 0.174,-0.282C0.173,-0.281 0.173,-0.28 0.173,-0.279C0.171,-0.276 0.17,-0.273 0.168,-0.269C0.157,-0.243 0.143,-0.216 0.127,-0.192C0.111,-0.165 0.095,-0.139 0.08,-0.111C0.065,-0.083 0.051,-0.055 0.038,-0.026C0.035,-0.02 0.034,-0.014 0.036,-0.007C0.038,0.001 0.044,0.008 0.053,0.01C0.09,0.017 0.128,0.011 0.166,0.008C0.185,0.006 0.205,0.006 0.224,0.006C0.233,0.007 0.243,0.007 0.252,0.008C0.257,0.008 0.262,0.008 0.267,0.009C0.27,0.009 0.272,0.009 0.275,0.01L0.278,0.01C0.285,0.011 0.291,0.011 0.297,0.007C0.302,0.004 0.306,-0.001 0.308,-0.007C0.311,-0.019 0.304,-0.035 0.291,-0.037Z" style="fill:white;fill-rule:nonzero;"/>
        </g>
        <g transform="matrix(56,0,0,56,49.5101,31.0123)">
            <path d="M0.316,-0.691C0.316,-0.703 0.315,-0.715 0.312,-0.727C0.308,-0.742 0.297,-0.752 0.281,-0.756C0.27,-0.758 0.257,-0.758 0.245,-0.757C0.235,-0.756 0.225,-0.755 0.215,-0.755L0.167,-0.755C0.132,-0.755 0.097,-0.755 0.062,-0.751C0.049,-0.749 0.038,-0.741 0.038,-0.726C0.038,-0.714 0.049,-0.7 0.062,-0.702C0.094,-0.706 0.126,-0.706 0.158,-0.706C0.185,-0.706 0.212,-0.704 0.239,-0.707C0.248,-0.708 0.257,-0.709 0.266,-0.708L0.266,-0.706C0.267,-0.704 0.267,-0.701 0.267,-0.699C0.267,-0.694 0.267,-0.689 0.268,-0.684L0.268,-0.648C0.268,-0.641 0.267,-0.635 0.267,-0.629C0.266,-0.626 0.266,-0.623 0.266,-0.62C0.266,-0.62 0.266,-0.619 0.265,-0.619C0.265,-0.617 0.265,-0.615 0.264,-0.613C0.262,-0.6 0.259,-0.587 0.256,-0.574L0.25,-0.556C0.248,-0.553 0.247,-0.55 0.246,-0.547L0.246,-0.545C0.245,-0.545 0.244,-0.542 0.244,-0.541C0.238,-0.529 0.232,-0.517 0.225,-0.506C0.221,-0.5 0.218,-0.495 0.214,-0.49C0.213,-0.489 0.212,-0.487 0.211,-0.486C0.209,-0.483 0.206,-0.48 0.204,-0.477C0.199,-0.472 0.195,-0.467 0.19,-0.463L0.18,-0.453C0.17,-0.446 0.159,-0.44 0.148,-0.434C0.146,-0.434 0.145,-0.433 0.144,-0.433C0.141,-0.431 0.138,-0.43 0.135,-0.429C0.129,-0.427 0.122,-0.425 0.116,-0.424C0.112,-0.423 0.109,-0.422 0.105,-0.421C0.104,-0.421 0.102,-0.421 0.1,-0.42L0.099,-0.42C0.091,-0.42 0.084,-0.419 0.076,-0.42C0.065,-0.42 0.055,-0.412 0.053,-0.402C0.049,-0.39 0.057,-0.374 0.07,-0.372C0.087,-0.368 0.104,-0.367 0.121,-0.365C0.123,-0.364 0.125,-0.364 0.127,-0.364L0.129,-0.364C0.133,-0.363 0.136,-0.363 0.139,-0.362C0.147,-0.361 0.155,-0.359 0.163,-0.357C0.166,-0.356 0.169,-0.355 0.173,-0.354C0.174,-0.354 0.175,-0.353 0.176,-0.353L0.177,-0.353L0.192,-0.344L0.202,-0.334C0.205,-0.332 0.206,-0.329 0.208,-0.327C0.209,-0.327 0.209,-0.326 0.21,-0.325C0.211,-0.324 0.211,-0.323 0.212,-0.322C0.215,-0.317 0.219,-0.312 0.222,-0.307C0.223,-0.304 0.224,-0.302 0.226,-0.299C0.226,-0.298 0.227,-0.296 0.228,-0.295C0.228,-0.294 0.229,-0.292 0.229,-0.291C0.234,-0.28 0.237,-0.269 0.24,-0.257C0.241,-0.251 0.242,-0.245 0.243,-0.238C0.243,-0.237 0.243,-0.235 0.244,-0.234C0.244,-0.23 0.244,-0.226 0.245,-0.222C0.246,-0.209 0.246,-0.195 0.245,-0.182C0.245,-0.17 0.244,-0.157 0.242,-0.145C0.242,-0.145 0.241,-0.139 0.241,-0.138C0.241,-0.135 0.24,-0.132 0.24,-0.129C0.238,-0.122 0.237,-0.116 0.236,-0.11C0.234,-0.104 0.233,-0.099 0.231,-0.093C0.23,-0.091 0.229,-0.088 0.228,-0.086C0.228,-0.085 0.227,-0.083 0.227,-0.082C0.225,-0.078 0.223,-0.074 0.22,-0.07C0.219,-0.069 0.219,-0.068 0.218,-0.068C0.218,-0.067 0.215,-0.064 0.214,-0.063C0.212,-0.06 0.209,-0.057 0.206,-0.055L0.204,-0.053L0.198,-0.05C0.196,-0.048 0.194,-0.047 0.192,-0.047C0.192,-0.046 0.191,-0.046 0.191,-0.046C0.186,-0.044 0.181,-0.043 0.177,-0.042C0.174,-0.041 0.172,-0.041 0.17,-0.04L0.165,-0.04C0.16,-0.039 0.156,-0.039 0.151,-0.039C0.141,-0.038 0.13,-0.038 0.119,-0.039C0.117,-0.039 0.114,-0.039 0.111,-0.04L0.107,-0.04C0.101,-0.041 0.095,-0.043 0.089,-0.044C0.088,-0.045 0.085,-0.046 0.084,-0.046C0.083,-0.047 0.081,-0.048 0.08,-0.049C0.079,-0.049 0.079,-0.05 0.078,-0.05L0.078,-0.051C0.077,-0.051 0.077,-0.052 0.077,-0.052C0.076,-0.053 0.076,-0.053 0.076,-0.054C0.075,-0.056 0.075,-0.058 0.074,-0.06L0.074,-0.066C0.074,-0.068 0.075,-0.069 0.075,-0.071C0.076,-0.072 0.076,-0.073 0.077,-0.074L0.078,-0.075C0.079,-0.076 0.08,-0.076 0.081,-0.077C0.093,-0.082 0.096,-0.099 0.09,-0.11C0.083,-0.122 0.068,-0.125 0.056,-0.119C0.043,-0.112 0.034,-0.1 0.029,-0.087C0.024,-0.074 0.025,-0.061 0.027,-0.048C0.031,-0.02 0.055,-0.003 0.08,0.004C0.103,0.01 0.128,0.011 0.151,0.01C0.175,0.01 0.197,0.005 0.219,-0.005C0.238,-0.015 0.254,-0.031 0.265,-0.049C0.277,-0.07 0.283,-0.095 0.287,-0.119C0.297,-0.174 0.299,-0.232 0.283,-0.287C0.271,-0.326 0.248,-0.364 0.214,-0.388C0.206,-0.393 0.197,-0.397 0.188,-0.4C0.202,-0.408 0.214,-0.417 0.225,-0.428C0.265,-0.468 0.293,-0.52 0.307,-0.575C0.313,-0.602 0.317,-0.631 0.317,-0.659C0.317,-0.67 0.317,-0.681 0.316,-0.691Z" style="fill:white;fill-rule:nonzero;"/>
        </g>
    </g>
</svg>
